X: 28837
T: My Time Inside 2005
R: waltz
M: 3/4
K: Gmajor
D GA|BG Bd BG|A4GA|BG Bd gd|
e2d2c2|B3 B dB|A3 B cA|G2G2F2|
E3 D GA|BG Bd BG|A4GA|BG Bd gd|
e2d2c2|B3 B dB|A3 B cA|G2G2F2|
E3 D GA|BG Bd BG|A4GA|B3 A GF|
E3 D GA|BG Bd BG|A6|G6-|
G3 D GA|BG Bd BG|A4GA|B3 A GF|
E3 D GA|BG Bd BG|A6|G6-|
G6|GD GB dB|c2B2A2|BG Bd gd|
e2d2c2|B3 B dB|A3 B cA|G2G2F2|
E3 D GA|BG Bd BG|A4GA|BG Bd gd|
e2d2c2|B3 B dB|A3 B cA|G2G2F2|
E3 d ga|bg bd' bg|a4ga|b3 a gf|
e3 d ga|bg bd' bg|a6|g6|
g3 d ga|bg bd' bg|a4ga|b3 a gf|
e3 d ga|bg bd' bg|a6|g6|
g2z4|GD GB dB|c2B2A2|BG Bd gd|
e2d2c2|B3 B dB|A3 B cA|G2G2F2|
E3 D GA|BG Bd BG|A4GA|BG Bd gd|
e2d2c2|B3 B dB|A3 B cA|G2G2F2|E3||

